!!!COM: Schiørring, Niels
!!!CDT: 1743-1798
!!!OPR@@DA: Choral-Bog
!!!ONM: 82
!!!OTL@@DA: D Jeſu! du er min
**kern	**fb	**kern	**kern	**kern	**kern	**kern	**kern	**kern
*part6	*part6	*part6	*part5	*part5	*part4	*part3	*part2	*part1
*staff8	*	*staff7	*staff6	*staff5	*staff4	*staff3	*staff2	*staff1
*clefF4	*	*clefC1	*clefF4	*clefC1	*clefF4	*clefC4	*clefC3	*clefC1
*k[]	*	*k[]	*k[]	*k[]	*k[]	*k[]	*k[]	*k[]
*M4/4	*	*M4/4	*M4/4	*M4/4	*M4/4	*M4/4	*M4/4	*M4/4
*met(c)	*	*met(c)	*met(c)	*met(c)	*met(c)	*met(c)	*met(c)	*met(c)
*MM180	*	*MM180	*MM180	*MM180	*MM180	*MM180	*MM180	*MM180
*	*	*	*^	*^	*	*	*	*
2AA	.	2ee	2ryy	2AA	2e	2cc	2AA	2c	2e	2ee
=1	=1	=1	=1	=1	=1	=1	=1	=1	=1	=1
2C	6	2a	1ryy	2C	2e	2a	2C	2e	2e	2a
2AA	.	2cc	.	2AA	2e	2a	2AA	2e	2e	2cc
=2	=2	=2	=2	=2	=2	=2	=2	=2	=2	=2
2D	6	2b	2d	2D	2b	2f	2D	2d	2f	2b
2D#X	7 5	2a	2c	2D#X	2a	2f#X	2D#X	2c	2f#X	2a
=3	=3	=3	=3	=3	=3	=3	=3	=3	=3	=3
2E	#	2g#X	2B	2E	2g#X	2e	2E	2B	2e	2g#X
2Gni	6	2e	2B	2Gni	2e	[2e	2G	2B	[2e	2e
=4	=4	=4	=4	=4	=4	=4	=4	=4	=4	=4
2F#X	7	2a	2A	2F#X	2a	4e]	2F#X	2A	(4e]	2a
2E	6	2gni	2B	2E	2gni	[2e	2E	2B	[2e	2gni
=5	=5	=5	=5	=5	=5	=5	=5	=5	=5	=5
2AA	6 5	2f#X	2ryy@	2AA	2c	2e]	2AA	2c	2e]	2f#X
2BB	#	2f#	4B	2BB	2f#	2d#X	2BB	(4B	2d#X	2f#
.	.	.	4A	.	.	.	.	4A)	.	.
=6	=6	=6	=6	=6	=6	=6	=6	=6	=6	=6
2E	.	2e	2G	2E	2e	2B	2E	2G	2e	2e
2C#X	5	2ee	2ryy@	2C#X	2g	2a	2C#X	2A	2g	2ee
=7	=7	=7	=7	=7	=7	=7	=7	=7	=7	=7
2D	.	2dd	1ryy	2D	2f	2a	2D	2A	2f	2dd
2D#X	7 5	2ccni	.	2D#X	[2f#X	[2a	2D#X	[2A	[2f#X	2cc
=8	=8	=8	=8	=8	=8	=8	=8	=8	=8	=8
2E	9 4	2b	1ryy	2E	4f#]	4a]	2E	(4A]	(4f#]	2b
2F	7	2a	.	2Fni	2a	2a	2F	2A	.	2a
=9	=9	=9	=9	=9	=9	=9	=9	=9	=9	=9
*	*	*	*	*	*	*	*^	*	*	*
2E	#	2g#X	1ryy	2E	2B	2e	2E	2E	2B	2e	2g#X
2EE	.	2g#	.	2EE	2B	2e	2E	2EE	2B	2e	2g#
*	*	*	*	*	*	*	*v	*v	*	*	*
=10	=10	=10	=10	=10	=10	=10	=10	=10	=10	=10
2r	.	2r	2r	2r	2r	2r	2r	2r	2r	2r
2AA	.	2cc	2A	2AA	2cc	2e	2AA	2A	2e	2cc
=11	=11	=11	=11	=11	=11	=11	=11	=11	=11	=11
2BB	#	2b	2F#X	2BB	2b	2d#X	2BB	2F#X	2d#X	2b
2C	6	2a	2A	2C	2a	2e	2C	2E	2e	2a
=12	=12	=12	=12	=12	=12	=12	=12	=12	=12	=12
2AA#X	7 5	2g	2ryy@	2AA#X	2c#X	2.e	2AA#X	2c#X	[2e	2g
2BB	4	2f#X	4B	2BB	2f#X	.	2BB	(4B	(4e]	2f#X
=13	=13	=13	=13	=13	=13	=13	=13	=13	=13	=13
1E	#	2e	2G	2E	2e	2B	2E	2G	2e	2e
.	.	2e	2G	2E	2e	2B	2E	2G	2B	2e
=14	=14	=14	=14	=14	=14	=14	=14	=14	=14	=14
2r	.	2r	2r	2r	2r	2r	2r	2r	2r	2r
2C	.	2g	2c	2C	2g	2e	2C	2c	2e	2g
=15	=15	=15	=15	=15	=15	=15	=15	=15	=15	=15
2F	.	2a	1c	2F	2a	2f	2F	2c	2f	2a
2E	6	2cc	.	2E	2cc	2g	2E	2c	2g	2cc
=16	=16	=16	=16	=16	=16	=16	=16	=16	=16	=16
2D	7	2cc	1d	2D	2cc	1f	2D	2d	2f	2cc
2G	7	2b	.	2G	2b	.	2G	2d	2f	2b
=17	=17	=17	=17	=17	=17	=17	=17	=17	=17	=17
2C	.	2cc	2c	2C	2cc	2e	2C	2c	2e	2cc
*	*	*	*	*	*	*^	*	*	*	*
2C	-7	2ee	2c	2C	2ee	2b-X	[2g\	2C	2B-X	[2g	2ee
=18	=18	=18	=18	=18	=18	=18	=18	=18	=18	=18	=18
1F	9	2a	2c	2F	2a	2a	2g\]	2F	2A	2g]	2a
.	8 6	2dd	2A	2F	2dd	2a	2f\	2F	2A	2f	2dd
=19	=19	=19	=19	=19	=19	=19	=19	=19	=19	=19	=19
2G	6 4	2cc	2e	2G	2cc	2g	1r	2G	2e	2e	2cc
2G#X	7 5	2b	2d	2G#X	2b	2f	.	2G#X	2d	2f	2b
=20	=20	=20	=20	=20	=20	=20	=20	=20	=20	=20	=20
1A	.	2cc	2c	2A	2cc	2e	1r	2A	2c	2e	2cc
.	.	2cc	2ryy@	2A	2e	2a	.	2A	2e	2e	2cc
=21	=21	=21	=21	=21	=21	=21	=21	=21	=21	=21	=21
2r	.	2r	2r	2r	2r	2r	1r	2r	2r	2r	2r
2A	4 3	2cc	2ryy@	2A	2d#X	2f#X	.	2A	2d#X	2f#X	2cc
=22	=22	=22	=22	=22	=22	=22	=22	=22	=22	=22	=22
2G	6	2b	1ryy	2G	2e	2g	1r	2G	2e	2g	2b
2C	6	2a	.	2C	2e	2e	.	2C	2e	[2e	2a
=23	=23	=23	=23	=23	=23	=23	=23	=23	=23	=23	=23
1BB	6 4	2g	2B	1BB	2g	2e	1r	2BB	2B	2e]	2g
.	5 #	2f#X	2A	.	2f#X	2d#X	.	2BB	2A	2d#X	2f#X
=24	=24	=24	=24	=24	=24	=24	=24	=24	=24	=24	=24
1E	.	2e	2G	2E	2e	2B	1r	2E	2G	2e	2e
.	.	2e	2G	2E	2e	2B	.	2E	2G	2B	2e
=25	=25	=25	=25	=25	=25	=25	=25	=25	=25	=25	=25
2r	.	2r	2r	2r	2r	2r	1r	2r	2r	2r	2r
2D#X	6	2f#X	2B	2D#X	2f#X	2B	.	2D#X	2B	2B	2f#X
=26	=26	=26	=26	=26	=26	=26	=26	=26	=26	=26	=26
2Dni	4	2g#X	2B	2Dni	2g#X	1e	1r	2Dni	2B	2e	2g#X
2C	6	2a	2c	2C	2a	.	.	2C	2c	2e	2a
=27	=27	=27	=27	=27	=27	=27	=27	=27	=27	=27	=27
2D	6 5	2a	1B	2D	2a	2f	1r	2D	2B	2f	2a
2E	#	2g#X	.	2E	2g#X	2e	.	2E	2B	2e	2g#X
=28	=28	=28	=28	=28	=28	=28	=28	=28	=28	=28	=28
2AA	.	2a	2A	2AA	2a	2e	2c\	2AA	2c	2e	2a
*	*	*	*v	*v	*	*	*	*	*	*	*
*	*	*	*	*v	*v	*v	*	*	*	*
==	==	==	==	==	==	==	==	==
*-	*-	*-	*-	*-	*-	*-	*-	*-
!!!system-decoration: {(s1,s2,s3,s4)}{(s5,s6)}{(s7,s8)}
!!!RDF**kern: i = editorial accidental
!!!RDF**kern: > = above
!!!RDF**kern: < = below
!!!AGN: chorale
!!!EED: Derek Remeš
!!!EED2: Victor Phan
!!!END: 2023/11/28
!!!ENC: Wolfgang Drescher
!!!EEV: 2023/11/29
!!!title: @{ONM}. @{OTL}